images/class__8.svg

<svg width="142" height="42" viewBox="0 0 142 42" fill="none" xmlns="http://www.w3.org/2000/svg">
<path d="M141.307 32.5538C141.307 32.3227 141.076 32.0916 140.96 31.9761L140.498 31.6294C140.036 31.8605 138.88 32.4382 138.765 32.4382C131.37 34.9801 124.091 35.6734 120.047 36.02C116.927 36.2511 113.692 36.1355 110.573 35.4423C106.644 34.6335 101.214 33.5936 97.401 33.3626C95.2057 33.247 93.0104 33.0159 91.2773 32.7848V32.6693C89.1975 29.6652 88.1577 23.7726 87.6955 21.1152L119.238 27.47H119.354C119.469 27.47 119.585 27.47 119.7 27.3544C119.816 27.2389 119.931 27.1233 119.931 27.0078L120.278 24.5814C120.278 24.5814 120.394 23.5416 120.394 23.426C120.278 23.0794 120.278 22.7328 120.509 22.3861C120.394 22.1551 120.278 22.0395 120.163 21.8084C120.047 21.8084 119.816 21.924 119.7 21.924C119.585 22.3861 118.892 26.0835 118.892 26.0835L88.0421 19.8442C87.9266 20.4219 87.58 20.8841 87.4644 21.4618C87.58 21.6929 87.58 22.0395 87.58 22.2706C87.4644 22.9639 87.2333 23.7726 87.2333 24.4659C87.8111 27.0078 88.6198 30.1274 89.8908 32.3227C88.7354 32.0916 87.8111 31.9761 87.2333 31.8605C87.1178 32.0916 87.0023 32.3227 86.6556 32.5538C86.7712 32.6693 86.6556 32.7848 86.6556 32.9004C88.1577 33.247 92.5482 34.1713 97.401 34.4024C101.098 34.518 106.529 35.5578 110.342 36.3666C112.652 36.8288 114.963 37.0599 117.274 37.0599C118.198 37.0599 119.238 37.0599 120.163 36.9443C124.207 36.5977 131.601 35.9045 139.111 33.247C139.227 33.247 139.458 33.1315 139.573 33.0159C139.92 32.7848 141.076 32.5538 141.191 32.4382C141.191 32.6693 141.191 32.6693 141.307 32.5538C141.191 32.6693 141.191 32.6693 141.307 32.5538C141.307 32.5538 141.307 32.6693 141.307 32.5538Z" fill="#2D333D"/>
<path d="M103.871 3.78387C103.756 3.55279 103.756 4.01495 103.871 3.78387C103.756 3.78387 103.64 3.78387 103.64 3.78387C103.409 3.89941 103.294 3.89941 103.178 3.89941C103.063 3.89941 103.063 3.89941 103.063 3.89941C102.947 3.89941 103.178 3.43725 102.716 4.01495L102.831 9.67647C102.831 10.1386 102.716 10.6008 102.254 11.063C101.907 11.4096 101.445 11.6407 100.867 11.6407L88.2733 11.7562C88.2733 12.1028 88.2733 12.4495 88.2733 12.7961C88.2733 12.7961 88.2733 12.9116 88.3889 12.9116C88.3889 12.9116 88.3889 12.9116 88.3889 12.7961L100.867 12.9116C101.676 12.9116 102.485 12.565 103.063 11.9873C103.64 11.4096 103.987 10.6008 103.871 9.79201V3.78387Z" fill="#2D333D"/>
<path d="M105.951 1.01099C105.836 0.664362 105.605 0.317738 105.142 0.0866559C104.796 -0.0288853 104.334 -0.0288853 103.987 0.0866559L102.254 0.895444C102.254 0.895444 102.138 0.895444 102.138 1.01099L99.5964 3.55289L99.0187 3.66843C99.0187 3.89951 99.1342 4.1306 99.1342 4.24614C99.2498 4.24614 99.3653 4.24614 99.3653 4.24614L99.7119 4.1306C99.8275 4.01506 100.059 4.01506 100.174 3.89951C100.405 3.78397 100.752 3.66843 100.983 3.66843C101.098 3.32181 100.983 3.32181 101.445 3.32181L102.832 1.93531L104.565 1.12653C104.68 1.12653 104.68 1.12653 104.796 1.12653C104.796 1.12653 104.911 1.12653 104.911 1.24207L105.258 2.51302H105.027C105.027 2.51302 105.027 2.51302 105.027 2.62856H105.142C105.489 2.62856 105.72 2.7441 105.951 2.97519C106.067 2.85964 106.298 2.7441 106.413 2.62856L105.951 1.01099Z" fill="#2D333D"/>
<path d="M141.307 32.7849C141.307 32.6694 141.191 32.6694 141.191 32.5538L140.498 31.9761V31.745C140.498 30.9362 140.267 29.2031 139.112 27.8166C138.418 27.0079 137.378 26.3146 136.108 26.0835C135.183 25.8524 134.143 25.7369 133.219 25.8524C132.872 25.8524 132.295 25.8524 131.601 25.8524C128.713 25.8524 124.553 25.3903 120.972 23.5416L120.741 23.4261L120.625 23.3105C120.163 22.3862 119.701 21.5774 119.123 20.8842L118.892 20.6531L118.199 19.9598L117.736 19.4977C117.39 19.1511 116.928 18.8044 116.466 18.5733L116.119 18.3423L115.657 17.9956L115.079 17.649H114.963C114.617 17.4179 114.386 17.3024 114.039 16.9558C113.808 16.7247 113.577 16.4936 113.346 16.147L109.995 10.8321C109.764 7.82802 109.533 4.93949 109.533 4.93949C109.418 3.89962 108.609 2.97529 107.453 2.85975L106.529 2.74421L103.872 2.39758C103.756 2.39758 103.64 2.51312 103.64 2.62866L103.409 3.20637L87.3492 5.17057C87.2336 5.17057 87.1181 5.28611 87.1181 5.51719L87.8113 12.4497C87.8113 12.4497 87.8113 12.4497 87.8113 12.5652C88.5046 14.7605 86.6559 24.2349 86.6559 24.3504V24.4659V24.5815C85.616 26.6612 86.3093 30.8207 86.5404 32.0917V32.4383L85.616 33.3626C85.616 33.3626 85.5005 33.4782 85.5005 33.5937V39.4863C85.5005 40.2951 86.1937 40.9883 87.1181 40.9883H100.752C100.867 40.9883 100.983 40.8728 100.983 40.7572L101.792 37.8687L112.999 39.8329L113.346 41.1039C113.346 41.2194 113.461 41.335 113.577 41.335C113.693 41.335 115.426 41.4505 117.968 41.4505C124.322 41.4505 135.876 40.7572 141.885 36.4822C142 36.4822 142 36.3667 142 36.2511C141.769 35.5579 141.422 33.2471 141.307 32.7849ZM140.845 36.2511C134.952 40.1795 123.745 40.7572 117.621 40.7572C116.119 40.7572 114.963 40.7572 114.155 40.7572H113.693L113.346 39.6018C113.346 39.4863 113.23 39.3708 113.115 39.3708L101.445 37.291C101.33 37.291 101.214 37.4066 101.214 37.5221L100.405 40.4106H86.887C86.3093 40.4106 85.8471 39.9485 85.8471 39.4863V33.7092L86.7714 32.7849L86.887 32.4383C86.5404 30.8207 85.8471 26.5457 86.887 24.8126C86.887 24.8126 86.887 24.8126 86.887 24.697V24.4659L87.3492 20.6531L87.5802 20.1909C88.1579 16.4936 88.2735 13.9517 88.0424 12.7963L88.1579 11.872L87.6958 5.74828L103.872 3.78408L103.987 3.66853L104.218 3.09083L107.453 3.55299C108.262 3.66854 108.955 4.36178 108.955 5.17057C108.955 5.17057 109.302 8.98343 109.533 10.8321C109.649 11.5253 110.226 12.5652 110.342 12.6807C110.92 13.7206 112.422 15.6848 113.23 16.9558C113.577 17.5335 114.155 17.9956 114.848 18.2267C114.963 18.2267 114.963 18.2267 115.079 18.3423L115.541 18.5733L116.003 18.92L116.697 19.3821C117.159 19.7288 117.736 20.1909 118.199 20.6531L118.43 20.8842L118.892 21.3463L119.585 22.5017C119.816 22.9639 120.394 24.0038 120.394 24.0038L121.087 24.3504C124.669 26.0835 128.713 26.5457 131.486 26.5457C132.179 26.5457 132.757 26.5457 133.335 26.5457C133.912 26.5457 134.605 26.5457 135.183 26.6612C136.57 26.8923 137.725 27.47 138.534 28.3943C139.92 30.0119 139.805 32.4383 139.805 32.4383L140.614 32.7849L141.076 36.1356L140.845 36.2511Z" fill="#2D333D" stroke="#2D333D" stroke-width="0.25" stroke-miterlimit="10"/>
<path d="M109.533 6.90371C110.111 6.90371 110.458 6.44155 110.458 5.97938C110.458 5.40168 109.995 5.05505 109.533 5.05505C108.956 5.05505 108.609 5.51722 108.609 5.97938C108.493 6.44155 108.956 6.90371 109.533 6.90371Z" fill="#2D333D"/>
<path d="M109.533 6.32606C109.764 6.32606 109.88 6.21052 109.88 5.97944C109.88 5.74835 109.764 5.63281 109.533 5.63281C109.302 5.63281 109.186 5.74835 109.186 5.97944C109.071 6.09498 109.302 6.32606 109.533 6.32606Z" fill="#2D333D"/>
<path d="M109.995 10.7162C110.573 10.7162 110.919 10.254 110.919 9.79188C110.919 9.21418 110.457 8.86755 109.995 8.86755C109.417 8.86755 109.071 9.32972 109.071 9.79188C108.955 10.254 109.417 10.7162 109.995 10.7162Z" fill="#2D333D"/>
<path d="M109.995 10.1386C110.226 10.1386 110.342 10.023 110.342 9.79194C110.342 9.56085 110.226 9.44531 109.995 9.44531C109.764 9.44531 109.648 9.56085 109.648 9.79194C109.648 10.023 109.764 10.1386 109.995 10.1386Z" fill="#2D333D"/>
<path d="M117.274 19.613L115.772 22.1549" stroke="#2D333D" stroke-width="0.75" stroke-miterlimit="10" stroke-linecap="round"/>
<path d="M115.079 17.5332L113.461 20.0751" stroke="#2D333D" stroke-width="0.75" stroke-miterlimit="10" stroke-linecap="round"/>
<path d="M113.808 16.1471L112.306 18.3424" stroke="#2D333D" stroke-width="0.75" stroke-miterlimit="10" stroke-linecap="round"/>
<path d="M113.23 14.9916L111.151 16.9558" stroke="#2D333D" stroke-width="0.75" stroke-miterlimit="10" stroke-linecap="round"/>
<path d="M111.844 13.8361L109.995 15.5692" stroke="#2D333D" stroke-width="0.75" stroke-miterlimit="10" stroke-linecap="round"/>
<path d="M53.38 22.1552C53.38 22.1552 53.2645 22.1552 53.38 22.1552C52.6868 20.6531 51.5314 19.8443 50.0293 19.2666C48.6428 18.6889 46.9097 18.4579 45.2921 18.3423C44.5989 18.2268 44.0212 18.2268 43.4435 18.1112C43.0969 18.1112 42.8658 17.9957 42.5191 17.8801C42.2881 17.7646 42.057 17.7646 41.9414 17.7646C41.7104 17.9957 41.5948 18.3423 41.4793 18.6889C41.7104 18.8045 42.057 18.8045 42.2881 18.92C42.5191 18.92 42.7502 19.0356 42.9813 19.0356L43.9056 21.9241H44.0212C43.0969 21.8085 42.1725 21.5775 41.3637 21.3464C40.5549 21.1153 39.7462 20.7687 38.8218 20.4221L23.3393 13.7207C23.1082 13.6051 22.8771 13.7207 22.6461 13.8362C21.2596 15.4538 19.642 16.8403 17.9089 17.8801C16.1758 18.8045 14.3271 19.3822 12.4784 19.4977C12.1318 19.4977 11.9007 19.7288 11.9007 20.0754C11.9007 20.191 12.0163 20.3065 12.0163 20.4221C13.7494 22.5018 14.7893 24.8126 15.2514 25.968H13.5183C9.35883 25.8525 5.19935 25.8525 1.38649 25.8525C1.27095 24.0038 1.38649 22.0396 1.73312 19.9599C1.84866 19.4977 1.84866 19.2666 2.19528 18.6889C3.23515 16.8403 4.62165 17.418 6.00814 18.1112C6.35476 18.3423 6.81693 18.4579 7.16355 18.5734C8.78113 19.1511 10.1676 19.0356 11.092 16.2626C11.7852 16.3781 12.4784 16.3781 13.1717 16.147C14.4426 15.9159 15.7136 15.3382 16.869 14.4139C18.14 13.374 19.4109 11.9876 20.6819 10.37C20.7974 10.2544 20.9129 10.1389 21.144 10.0233C21.2596 10.0233 21.3751 10.0233 21.4907 10.0233C21.6062 9.67673 21.6062 9.3301 21.6062 8.98348C21.3751 8.98348 21.144 8.98348 21.0285 8.98348L18.8332 7.71253C18.4866 7.48144 18.0244 7.48145 17.6778 7.48145C17.2156 7.59699 16.869 7.71253 16.6379 8.05915L14.6737 10.0233C14.4426 10.2544 14.3271 10.4855 14.2116 10.7166C14.096 10.9477 14.096 11.1788 14.096 11.5254C14.096 11.7565 14.096 12.1031 14.2116 12.3342C14.3271 12.5653 14.4426 12.7963 14.6737 13.0274L15.7136 14.0673C14.7893 14.7605 13.8649 15.1072 12.9406 15.3382C10.6298 15.8004 8.20342 14.7605 5.54598 11.872C5.31489 11.6409 5.08381 11.4098 4.73719 11.2943C4.39056 11.1788 4.04394 11.1788 3.81286 11.2943C3.46623 11.4098 3.23515 11.5254 2.88853 11.7565C2.65745 11.9875 2.42636 12.2186 2.31082 12.5653C1.50203 15.1072 0.924329 17.5335 0.577706 19.8443C0.231082 22.0396 0.115541 24.2349 0.231082 26.1991L0 30.2431V30.3586C0 30.8208 0.231082 31.2829 0.577706 31.7451C0.924329 32.0917 1.38649 32.3228 1.84866 32.3228C1.9642 32.3228 1.9642 32.3228 1.9642 32.3228H39.5151C42.057 32.3228 45.1766 31.8606 47.9496 30.9363C49.6827 30.2431 51.0692 29.4343 52.2246 28.3944C53.38 27.239 54.0733 25.8525 54.0733 24.2349C53.7266 23.6572 53.6111 22.7329 53.38 22.1552ZM15.1359 12.3342C15.0204 12.2186 15.0204 12.1031 14.9048 11.9876C14.9048 11.872 14.7893 11.7565 14.7893 11.6409C14.7893 11.5254 14.7893 11.4098 14.9048 11.2943C14.9048 11.1788 15.0204 11.0632 15.1359 11.0632L17.1001 9.09902C17.2156 8.98348 17.4467 8.86794 17.5623 8.86794C17.7933 8.86794 17.9089 8.86794 18.14 8.98348L19.7575 9.90781L19.642 10.0233C18.6021 11.5254 17.4467 12.6808 16.4068 13.6051L15.1359 12.3342ZM3.11961 13.0274C3.11961 12.9119 3.23515 12.6808 3.35069 12.6808C3.46623 12.5653 3.58178 12.5653 3.69732 12.4497C4.04394 12.4497 4.27502 12.4497 4.50611 12.6808C6.23922 14.645 7.97234 15.8004 9.70546 16.2626C9.01221 17.9957 8.20342 18.1112 7.16355 17.7646C6.81693 17.6491 6.35476 17.5335 6.00814 17.3024C4.62165 16.6092 3.11961 16.0315 1.9642 16.9558C2.19528 15.6849 2.65745 14.4139 3.11961 13.0274ZM45.0611 19.2666C46.6786 19.4977 48.2962 19.7288 49.5672 20.191C50.7226 20.6531 51.6469 21.2308 52.2246 22.2707C51.6469 23.6572 49.2205 24.5815 45.7543 25.1592L44.0212 19.1511C44.3678 19.2666 44.7144 19.2666 45.0611 19.2666ZM13.1717 20.6531C14.9048 20.4221 16.5224 19.8443 18.0244 19.0356C19.8731 17.9957 21.4907 16.6092 22.8771 14.9916L38.1286 21.4619C39.0529 21.8085 39.9772 22.1552 40.786 22.3863C41.7104 22.6173 42.5191 22.8484 43.559 22.964L44.1367 23.0795L44.83 25.2748C37.8975 26.1991 27.2677 26.1991 16.1758 26.0836C15.7136 25.2748 14.7893 22.964 13.1717 20.6531ZM51.0692 27.4701C50.1449 28.3944 48.7584 29.2032 47.1408 29.7809C44.4833 30.7052 41.4793 31.1674 39.0529 31.1674H1.61758H1.50204C1.27095 31.1674 1.03987 31.0518 0.924329 30.9363C0.808788 30.8208 0.693247 30.5897 0.693247 30.4741L0.924329 27.239C4.96827 27.239 9.01221 27.3545 13.0562 27.3545C25.3035 27.4701 37.4353 27.7011 45.0611 26.4302C45.1766 26.4302 45.2921 26.4302 45.4077 26.4302C45.5232 26.4302 45.5232 26.4302 45.5232 26.3147C48.7584 25.7369 51.1847 24.9282 52.4557 23.6572C52.4557 23.8883 52.4557 24.0038 52.4557 24.2349C52.6868 25.5059 51.9935 26.6613 51.0692 27.4701Z" fill="#26303B"/>
<path d="M21.4906 10.3695L21.9528 10.6006C21.7217 10.9472 21.4906 11.4094 21.3751 11.8715C21.2595 12.3337 21.4906 12.9114 22.0683 13.0269C22.5305 13.1425 22.9926 12.9114 23.1082 12.3337C23.2237 11.8715 23.3393 11.6405 23.5703 11.4094L25.7656 12.3337C25.5345 12.6803 25.419 13.0269 25.3035 13.4891C25.1879 13.9513 25.419 14.529 25.8812 14.6445C26.3433 14.7601 26.8055 14.529 27.0366 13.9513C27.1521 13.4891 27.2677 13.258 27.4987 13.0269L29.694 13.9513C29.4629 14.2979 29.3474 14.6445 29.2319 15.1067C29.1163 15.5689 29.3474 16.031 29.8096 16.2621C30.2717 16.3776 30.7339 16.1466 30.965 15.5689C31.0805 15.2222 31.1961 14.8756 31.4271 14.6445L33.6224 15.5689C33.3913 15.9155 33.2758 16.2621 33.1603 16.6087C33.0447 17.0709 33.2758 17.5331 33.738 17.7641C34.2001 17.8797 34.6623 17.6486 34.7778 17.0709C34.8934 16.7243 35.0089 16.3776 35.24 16.1466L37.4353 17.0709C37.3197 17.4175 37.0887 17.7641 36.9731 18.1108C36.8576 18.5729 37.0887 19.1506 37.5508 19.2662C38.013 19.3817 38.4752 19.1506 38.5907 18.5729C38.7062 18.2263 38.8218 17.8797 39.0529 17.7641L39.515 17.9952C40.2083 18.2263 40.9015 18.4574 41.4792 18.6885C41.7103 18.3418 41.8258 17.9952 41.9414 17.7641C41.7103 17.6486 41.4792 17.6486 41.2481 17.5331C41.3637 17.302 41.4792 16.8398 41.2481 16.6087C41.1326 16.2621 40.786 15.9155 40.4394 15.7999C39.9772 15.5689 39.515 15.4533 39.0529 15.5689C38.5907 15.6844 38.2441 15.9155 37.8974 16.2621L37.2042 16.031C37.3197 15.7999 37.4353 15.3378 37.2042 15.1067C37.0887 14.7601 36.742 14.4134 36.3954 14.2979C35.9332 14.0668 35.4711 13.9513 35.0089 14.0668C34.5468 14.1824 34.2001 14.2979 33.8535 14.7601L33.5069 14.2979C33.6224 14.0668 33.738 13.7202 33.5069 13.3736C33.3913 13.0269 33.0447 12.6803 32.6981 12.5648C32.2359 12.3337 31.7738 12.2182 31.3116 12.3337C30.965 12.4492 30.5028 12.6803 30.1562 13.0269L29.4629 12.7959C29.5785 12.5648 29.5785 12.2182 29.4629 11.9871C29.2319 11.6405 29.0008 11.2938 28.6542 11.1783C28.192 10.9472 27.7298 10.8317 27.2677 10.9472C26.921 11.0627 26.4589 11.1783 26.2278 11.5249L25.7656 11.1783C25.8812 10.9472 25.8812 10.6006 25.7656 10.3695C25.5345 10.0229 25.3035 9.67625 24.9568 9.56071C24.4947 9.32963 24.0325 9.21409 23.5703 9.32963C23.2237 9.44517 22.7616 9.67625 22.5305 9.90734L21.7217 9.56071C21.6061 9.56071 21.4906 9.44517 21.3751 9.44517C21.3751 9.79179 21.3751 10.254 21.2595 10.485C21.3751 10.3695 21.3751 10.3695 21.4906 10.3695Z" fill="#26303B"/>
</svg>

<svg width="142" height="42" fill="none" xmlns="http://www.w3.org/2000/svg"><path d="M141.307 32.554c0-.231-.231-.462-.347-.578l-.462-.347c-.462.231-1.618.81-1.733.81-7.395 2.541-14.674 3.234-18.718 3.581-3.12.231-6.355.115-9.474-.578-3.929-.809-9.359-1.848-13.172-2.08a79.403 79.403 0 0 1-6.124-.577v-.116c-2.08-3.004-3.12-8.896-3.582-11.554l31.543 6.355h.116c.115 0 .231 0 .346-.116.116-.115.231-.23.231-.346l.347-2.427s.116-1.04.116-1.155c-.116-.347-.116-.693.115-1.04-.115-.23-.231-.346-.346-.578-.116 0-.347.116-.463.116-.115.462-.808 4.16-.808 4.16l-30.85-6.24c-.115.578-.462 1.04-.578 1.618.116.23.116.578.116.809-.116.693-.347 1.502-.347 2.195.578 2.542 1.387 5.661 2.658 7.857-1.156-.231-2.08-.347-2.658-.463-.115.232-.23.463-.577.694.115.115 0 .23 0 .346 1.502.347 5.892 1.271 10.745 1.502 3.697.116 9.128 1.156 12.941 1.965 2.31.462 4.621.693 6.932.693.924 0 1.964 0 2.889-.116 4.044-.346 11.438-1.04 18.948-3.697.116 0 .347-.115.462-.231.347-.231 1.503-.462 1.618-.578 0 .231 0 .231.116.116-.116.115-.116.115 0 0 0 0 0 .115 0 0ZM103.871 3.784c-.115-.231-.115.23 0 0h-.231c-.231.115-.346.115-.462.115h-.115c-.116 0 .115-.462-.347.116l.115 5.661c0 .463-.115.925-.577 1.387a1.915 1.915 0 0 1-1.387.578l-12.594.115v1.04s0 .116.116.116v-.116l12.478.116c.809 0 1.618-.347 2.196-.925.577-.577.924-1.386.808-2.195V3.784ZM105.951 1.011a1.541 1.541 0 0 0-.809-.924 1.968 1.968 0 0 0-1.155 0l-1.733.808s-.116 0-.116.116l-2.542 2.542-.577.115c0 .232.115.463.115.578h.231l.347-.115c.115-.116.347-.116.462-.231.231-.116.578-.232.809-.232.115-.346 0-.346.462-.346l1.387-1.387 1.733-.808h.231s.115 0 .115.115l.347 1.271h-.231v.116h.115c.347 0 .578.115.809.346.116-.115.347-.23.462-.346l-.462-1.618Z" fill="#2D333D"/><path d="M141.307 32.785c0-.116-.116-.116-.116-.231l-.693-.578v-.231c0-.809-.231-2.542-1.386-3.928a5.225 5.225 0 0 0-3.004-1.733c-.925-.232-1.965-.347-2.889-.232h-1.618c-2.888 0-7.048-.462-10.629-2.31l-.231-.116-.116-.115c-.462-.925-.924-1.734-1.502-2.427l-.231-.23-.693-.694-.463-.462a5.118 5.118 0 0 0-1.27-.925l-.347-.23-.462-.347-.578-.347h-.116c-.346-.231-.577-.347-.924-.693-.231-.231-.462-.462-.693-.809l-3.351-5.315c-.231-3.004-.462-5.893-.462-5.893-.115-1.04-.924-1.964-2.08-2.08l-.924-.115-2.657-.346c-.116 0-.232.115-.232.23l-.231.578-16.06 1.965c-.115 0-.23.115-.23.346l.692 6.933v.115c.694 2.196-1.155 11.67-1.155 11.785v.231c-1.04 2.08-.347 6.24-.116 7.51v.347l-.924.925s-.115.115-.115.23v5.893c0 .81.693 1.502 1.617 1.502h13.634a.249.249 0 0 0 .231-.23l.809-2.89 11.207 1.965.347 1.27c0 .116.115.232.231.232s1.849.115 4.391.115c6.354 0 17.908-.693 23.917-4.968.115 0 .115-.115.115-.23-.231-.694-.578-3.005-.693-3.467Zm-.462 3.466c-5.893 3.928-17.1 4.506-23.224 4.506H113.693l-.347-1.155c0-.116-.116-.231-.231-.231l-11.67-2.08a.249.249 0 0 0-.231.231l-.809 2.889H86.887c-.578 0-1.04-.462-1.04-.925V33.71l.924-.924.116-.347c-.347-1.617-1.04-5.892 0-7.625V24.466l.462-3.813.231-.462c.578-3.697.694-6.24.462-7.395l.116-.924-.462-6.124 16.176-1.964.115-.115.231-.578 3.235.462c.809.116 1.502.809 1.502 1.618 0 0 .347 3.812.578 5.661.116.693.693 1.733.809 1.849.578 1.04 2.08 3.004 2.888 4.275.347.578.925 1.04 1.618 1.27.115 0 .115 0 .231.116l.462.231.462.347.694.462c.462.347 1.039.809 1.502 1.271l.231.231.462.462.693 1.156c.231.462.809 1.502.809 1.502l.693.346c3.582 1.733 7.626 2.196 10.399 2.196h1.849c.577 0 1.27 0 1.848.115 1.387.231 2.542.809 3.351 1.733 1.386 1.618 1.271 4.044 1.271 4.044l.809.347.462 3.35-.231.116Z" fill="#2D333D" stroke="#2D333D" stroke-width=".25" stroke-miterlimit="10"/><path d="M109.533 6.904c.578 0 .925-.462.925-.925 0-.577-.463-.924-.925-.924-.577 0-.924.462-.924.924-.116.463.347.925.924.925Z" fill="#2D333D"/><path d="M109.533 6.326c.231 0 .347-.115.347-.347 0-.23-.116-.346-.347-.346-.231 0-.347.115-.347.346-.115.116.116.347.347.347ZM109.995 10.716c.578 0 .924-.462.924-.924 0-.578-.462-.924-.924-.924-.578 0-.924.462-.924.924-.116.462.346.924.924.924Z" fill="#2D333D"/><path d="M109.995 10.139c.231 0 .347-.116.347-.347 0-.231-.116-.347-.347-.347-.231 0-.347.116-.347.347 0 .231.116.347.347.347Z" fill="#2D333D"/><path d="m117.274 19.613-1.502 2.542M115.079 17.533l-1.618 2.542M113.808 16.147l-1.502 2.195M113.23 14.992l-2.079 1.964M111.844 13.836l-1.849 1.733" stroke="#2D333D" stroke-width=".75" stroke-miterlimit="10" stroke-linecap="round"/><path d="M53.38 22.155s-.116 0 0 0c-.693-1.502-1.849-2.31-3.35-2.888-1.387-.578-3.12-.81-4.738-.925-.693-.115-1.27-.115-1.849-.23-.346 0-.577-.116-.924-.232-.23-.115-.462-.115-.578-.115-.23.23-.346.577-.462.924.231.116.578.116.81.231.23 0 .461.116.692.116l.925 2.888h.115c-.924-.116-1.849-.346-2.657-.578-.81-.23-1.618-.577-2.542-.924l-15.483-6.701c-.23-.116-.462 0-.693.115-1.386 1.618-3.004 3.004-4.737 4.044-1.733.925-3.582 1.502-5.43 1.618-.347 0-.578.23-.578.577 0 .116.115.232.115.347 1.733 2.08 2.773 4.39 3.235 5.546h-1.733c-4.16-.116-8.319-.116-12.132-.116-.115-1.848 0-3.812.347-5.892.116-.462.116-.693.462-1.271 1.04-1.849 2.427-1.271 3.813-.578.347.231.809.347 1.156.462 1.617.578 3.004.463 3.928-2.31.693.115 1.386.115 2.08-.116 1.27-.231 2.542-.809 3.697-1.733 1.271-1.04 2.542-2.426 3.813-4.044.115-.116.23-.231.462-.347h.347c.115-.346.115-.693.115-1.04h-.578l-2.195-1.27c-.346-.232-.809-.232-1.155-.232-.462.116-.809.232-1.04.578l-1.964 1.964c-.231.231-.347.463-.462.694-.116.23-.116.462-.116.808 0 .232 0 .578.116.81.115.23.23.461.462.692l1.04 1.04c-.925.694-1.85 1.04-2.773 1.271-2.311.462-4.738-.577-7.395-3.466-.231-.231-.462-.462-.809-.578-.346-.115-.693-.115-.924 0a3.458 3.458 0 0 0-.924.463c-.232.23-.463.462-.578.808-.809 2.542-1.387 4.969-1.733 7.28C.23 22.04.116 24.234.23 26.198L0 30.243v.116c0 .462.231.924.578 1.386.346.347.808.578 1.27.578h37.667c2.542 0 5.662-.462 8.435-1.387 1.733-.693 3.12-1.502 4.275-2.542 1.155-1.155 1.848-2.541 1.848-4.16-.346-.577-.462-1.501-.693-2.079Zm-38.244-9.82c-.116-.116-.116-.232-.231-.347 0-.116-.116-.231-.116-.347 0-.116 0-.231.116-.347 0-.115.115-.23.23-.23L17.1 9.098c.116-.116.347-.231.462-.231.231 0 .347 0 .578.115l1.617.925-.115.115c-1.04 1.502-2.195 2.658-3.235 3.582l-1.271-1.27Zm-12.016.692c0-.115.115-.346.23-.346.116-.116.232-.116.347-.231.347 0 .578 0 .81.23 1.732 1.965 3.465 3.12 5.198 3.583-.693 1.733-1.502 1.848-2.541 1.502-.347-.116-.81-.232-1.156-.463-1.386-.693-2.888-1.27-4.044-.346.231-1.271.693-2.542 1.156-3.929Zm41.941 6.24c1.618.23 3.235.462 4.506.924 1.156.462 2.08 1.04 2.658 2.08-.578 1.386-3.005 2.31-6.47 2.888l-1.734-6.008c.347.116.693.116 1.04.116Zm-31.89 1.386c1.734-.23 3.351-.809 4.853-1.617 1.85-1.04 3.467-2.427 4.853-4.044l15.252 6.47c.924.346 1.848.693 2.657.924.924.231 1.733.462 2.773.578l.578.116.693 2.195c-6.932.924-17.562.924-28.654.809-.462-.81-1.387-3.12-3.004-5.43ZM51.07 27.47c-.924.924-2.31 1.733-3.928 2.31-2.658.925-5.662 1.387-8.088 1.387H1.502a.883.883 0 0 1-.578-.23c-.115-.116-.23-.347-.23-.463l.23-3.235c4.044 0 8.088.116 12.132.116 12.248.115 24.38.346 32.005-.925h.347c.115 0 .115 0 .115-.115 3.235-.578 5.662-1.387 6.933-2.658v.578c.23 1.27-.463 2.426-1.387 3.235Z" fill="#26303B"/><path d="m21.49 10.37.463.23a4.27 4.27 0 0 0-.578 1.271c-.116.463.116 1.04.693 1.156.462.116.925-.116 1.04-.693.116-.463.231-.694.462-.925l2.196.925c-.231.346-.347.693-.462 1.155-.116.462.115 1.04.577 1.155.462.116.924-.115 1.156-.693.115-.462.23-.693.462-.924l2.195.924c-.231.347-.347.694-.462 1.156-.116.462.115.924.578 1.155.462.116.924-.115 1.155-.693.116-.347.231-.693.462-.925l2.195.925c-.23.346-.346.693-.462 1.04-.115.462.116.924.578 1.155.462.116.924-.115 1.04-.693.115-.347.23-.693.462-.924l2.195.924c-.115.346-.346.693-.462 1.04-.115.462.116 1.04.578 1.155.462.116.924-.115 1.04-.693.115-.347.23-.693.462-.809l.462.231c.693.231 1.386.462 1.964.694.231-.347.347-.694.462-.925-.23-.115-.462-.115-.693-.23.116-.232.231-.694 0-.925a1.396 1.396 0 0 0-.809-.81c-.462-.23-.924-.346-1.386-.23-.462.115-.809.346-1.156.693l-.693-.231c.116-.231.231-.693 0-.924a1.396 1.396 0 0 0-.809-.81c-.462-.23-.924-.346-1.386-.23-.462.115-.809.23-1.156.693l-.346-.462c.115-.231.231-.578 0-.924a1.396 1.396 0 0 0-.809-.81c-.462-.23-.924-.346-1.386-.23-.347.115-.81.346-1.156.693l-.693-.231a.986.986 0 0 0 0-.809c-.231-.347-.462-.693-.809-.809-.462-.23-.924-.346-1.386-.23-.347.115-.81.23-1.04.577l-.462-.347a.986.986 0 0 0 0-.809c-.231-.346-.462-.693-.81-.808-.461-.231-.924-.347-1.386-.231-.346.115-.808.346-1.04.577l-.808-.346c-.116 0-.231-.116-.347-.116 0 .347 0 .809-.116 1.04.116-.115.116-.115.232-.115Z" fill="#26303B"/></svg>
